images/3234306.svg

<?xml version="1.0" encoding="UTF-8"?>
<svg xmlns="http://www.w3.org/2000/svg" xmlns:xlink="http://www.w3.org/1999/xlink" width="300pt" height="300pt" viewBox="0 0 300 300" version="1.1">
<defs>
<g>
<symbol overflow="visible" id="glyph0-0">
<path style="stroke:none;" d="M 0.59375 2.125 L 0.59375 -8.46875 L 6.59375 -8.46875 L 6.59375 2.125 Z M 1.265625 1.453125 L 5.9375 1.453125 L 5.9375 -7.78125 L 1.265625 -7.78125 Z M 1.265625 1.453125 "/>
</symbol>
<symbol overflow="visible" id="glyph0-1">
<path style="stroke:none;" d="M 1.171875 -8.75 L 2.765625 -8.75 L 6.65625 -1.4375 L 6.65625 -8.75 L 7.796875 -8.75 L 7.796875 0 L 6.203125 0 L 2.328125 -7.3125 L 2.328125 0 L 1.171875 0 Z M 1.171875 -8.75 "/>
</symbol>
<symbol overflow="visible" id="glyph0-2">
<path style="stroke:none;" d="M 4.734375 -7.953125 C 3.867188 -7.953125 3.179688 -7.628906 2.671875 -6.984375 C 2.171875 -6.347656 1.921875 -5.472656 1.921875 -4.359375 C 1.921875 -3.265625 2.171875 -2.394531 2.671875 -1.75 C 3.179688 -1.113281 3.867188 -0.796875 4.734375 -0.796875 C 5.585938 -0.796875 6.265625 -1.113281 6.765625 -1.75 C 7.273438 -2.394531 7.53125 -3.265625 7.53125 -4.359375 C 7.53125 -5.472656 7.273438 -6.347656 6.765625 -6.984375 C 6.265625 -7.628906 5.585938 -7.953125 4.734375 -7.953125 Z M 4.734375 -8.90625 C 5.953125 -8.90625 6.925781 -8.492188 7.65625 -7.671875 C 8.394531 -6.847656 8.765625 -5.742188 8.765625 -4.359375 C 8.765625 -2.984375 8.394531 -1.882812 7.65625 -1.0625 C 6.925781 -0.238281 5.953125 0.171875 4.734375 0.171875 C 3.503906 0.171875 2.519531 -0.238281 1.78125 -1.0625 C 1.039062 -1.882812 0.671875 -2.984375 0.671875 -4.359375 C 0.671875 -5.742188 1.039062 -6.847656 1.78125 -7.671875 C 2.519531 -8.492188 3.503906 -8.90625 4.734375 -8.90625 Z M 4.734375 -8.90625 "/>
</symbol>
<symbol overflow="visible" id="glyph0-3">
<path style="stroke:none;" d="M 7.734375 -8.078125 L 7.734375 -6.828125 C 7.328125 -7.203125 6.898438 -7.476562 6.453125 -7.65625 C 6.003906 -7.84375 5.523438 -7.9375 5.015625 -7.9375 C 4.015625 -7.9375 3.25 -7.628906 2.71875 -7.015625 C 2.1875 -6.398438 1.921875 -5.515625 1.921875 -4.359375 C 1.921875 -3.210938 2.1875 -2.332031 2.71875 -1.71875 C 3.25 -1.101562 4.015625 -0.796875 5.015625 -0.796875 C 5.523438 -0.796875 6.003906 -0.890625 6.453125 -1.078125 C 6.898438 -1.265625 7.328125 -1.539062 7.734375 -1.90625 L 7.734375 -0.671875 C 7.316406 -0.390625 6.875 -0.175781 6.40625 -0.03125 C 5.945312 0.101562 5.460938 0.171875 4.953125 0.171875 C 3.617188 0.171875 2.570312 -0.234375 1.8125 -1.046875 C 1.050781 -1.859375 0.671875 -2.960938 0.671875 -4.359375 C 0.671875 -5.765625 1.050781 -6.875 1.8125 -7.6875 C 2.570312 -8.5 3.617188 -8.90625 4.953125 -8.90625 C 5.472656 -8.90625 5.960938 -8.832031 6.421875 -8.6875 C 6.890625 -8.550781 7.328125 -8.347656 7.734375 -8.078125 Z M 7.734375 -8.078125 "/>
</symbol>
<symbol overflow="visible" id="glyph0-4">
<path style="stroke:none;" d="M 1.125 -9.125 L 2.203125 -9.125 L 2.203125 0 L 1.125 0 Z M 1.125 -9.125 "/>
</symbol>
</g>
</defs>
<g id="surface39193">
<rect x="0" y="0" width="300" height="300" style="fill:rgb(100%,100%,100%);fill-opacity:1;stroke:none;"/>
<path style="fill:none;stroke-width:1.2;stroke-linecap:butt;stroke-linejoin:miter;stroke:rgb(0%,0%,0%);stroke-opacity:1;stroke-miterlimit:10;" d="M 45.652344 230.117188 L 67.683594 211.390625 "/>
<path style="fill:none;stroke-width:1.2;stroke-linecap:butt;stroke-linejoin:miter;stroke:rgb(0%,0%,0%);stroke-opacity:1;stroke-miterlimit:10;" d="M 67.683594 211.390625 L 81.300781 216.25 "/>
<path style="fill:none;stroke-width:1.2;stroke-linecap:butt;stroke-linejoin:miter;stroke:rgb(0%,0%,100%);stroke-opacity:1;stroke-miterlimit:10;" d="M 81.300781 216.25 L 94.917969 221.109375 "/>
<path style="fill:none;stroke-width:1.2;stroke-linecap:butt;stroke-linejoin:miter;stroke:rgb(0%,0%,0%);stroke-opacity:1;stroke-miterlimit:10;" d="M 72.695312 205.957031 L 83.585938 209.84375 "/>
<path style="fill:none;stroke-width:1.2;stroke-linecap:butt;stroke-linejoin:miter;stroke:rgb(0%,0%,100%);stroke-opacity:1;stroke-miterlimit:10;" d="M 83.585938 209.84375 L 94.480469 213.730469 "/>
<path style="fill:none;stroke-width:1.2;stroke-linecap:butt;stroke-linejoin:miter;stroke:rgb(0%,0%,0%);stroke-opacity:1;stroke-miterlimit:10;" d="M 62.484375 182.949219 L 67.683594 211.390625 "/>
<path style="fill:none;stroke-width:1.2;stroke-linecap:butt;stroke-linejoin:miter;stroke:rgb(0%,0%,100%);stroke-opacity:1;stroke-miterlimit:10;" d="M 94.917969 221.109375 L 105.933594 211.746094 "/>
<path style="fill:none;stroke-width:1.2;stroke-linecap:butt;stroke-linejoin:miter;stroke:rgb(0%,0%,0%);stroke-opacity:1;stroke-miterlimit:10;" d="M 105.933594 211.746094 L 116.949219 202.382812 "/>
<path style=" stroke:none;fill-rule:nonzero;fill:rgb(100%,100%,100%);fill-opacity:1;" d="M 90.917969 214.109375 L 99.917969 214.109375 L 99.917969 228.109375 L 90.917969 228.109375 Z M 90.917969 214.109375 "/>
<g style="fill:rgb(0%,0%,100%);fill-opacity:1;">
  <use xlink:href="#glyph0-1" x="90.917969" y="225.248047"/>
</g>
<path style="fill:none;stroke-width:1.2;stroke-linecap:butt;stroke-linejoin:miter;stroke:rgb(0%,0%,0%);stroke-opacity:1;stroke-miterlimit:10;" d="M 116.949219 202.382812 L 144.183594 212.101562 "/>
<path style="fill:none;stroke-width:1.2;stroke-linecap:butt;stroke-linejoin:miter;stroke:rgb(0%,0%,0%);stroke-opacity:1;stroke-miterlimit:10;" d="M 121.960938 196.949219 L 143.746094 204.722656 "/>
<path style="fill:none;stroke-width:1.2;stroke-linecap:butt;stroke-linejoin:miter;stroke:rgb(0%,0%,0%);stroke-opacity:1;stroke-miterlimit:10;" d="M 111.75 173.941406 L 116.949219 202.382812 "/>
<path style="fill:none;stroke-width:1.2;stroke-linecap:butt;stroke-linejoin:miter;stroke:rgb(0%,0%,0%);stroke-opacity:1;stroke-miterlimit:10;" d="M 144.183594 212.101562 L 155.199219 202.738281 "/>
<path style="fill:none;stroke-width:1.2;stroke-linecap:butt;stroke-linejoin:miter;stroke:rgb(0%,0%,100%);stroke-opacity:1;stroke-miterlimit:10;" d="M 155.199219 202.738281 L 166.21875 193.375 "/>
<path style="fill:none;stroke-width:1.2;stroke-linecap:butt;stroke-linejoin:miter;stroke:rgb(0%,0%,100%);stroke-opacity:1;stroke-miterlimit:10;" d="M 166.21875 193.375 L 163.617188 179.15625 "/>
<path style="fill:none;stroke-width:1.2;stroke-linecap:butt;stroke-linejoin:miter;stroke:rgb(0%,0%,0%);stroke-opacity:1;stroke-miterlimit:10;" d="M 163.617188 179.15625 L 161.015625 164.933594 "/>
<path style="fill:none;stroke-width:1.2;stroke-linecap:butt;stroke-linejoin:miter;stroke:rgb(0%,0%,100%);stroke-opacity:1;stroke-miterlimit:10;" d="M 159.003906 191.757812 L 156.925781 180.378906 "/>
<path style="fill:none;stroke-width:1.2;stroke-linecap:butt;stroke-linejoin:miter;stroke:rgb(0%,0%,0%);stroke-opacity:1;stroke-miterlimit:10;" d="M 156.925781 180.378906 L 154.84375 169 "/>
<path style=" stroke:none;fill-rule:nonzero;fill:rgb(100%,100%,100%);fill-opacity:1;" d="M 162.21875 186.375 L 171.21875 186.375 L 171.21875 200.375 L 162.21875 200.375 Z M 162.21875 186.375 "/>
<g style="fill:rgb(0%,0%,100%);fill-opacity:1;">
  <use xlink:href="#glyph0-1" x="162.21875" y="197.513672"/>
</g>
<path style="fill:none;stroke-width:1.2;stroke-linecap:butt;stroke-linejoin:miter;stroke:rgb(0%,0%,0%);stroke-opacity:1;stroke-miterlimit:10;" d="M 161.015625 164.933594 L 147.398438 160.074219 "/>
<path style="fill:none;stroke-width:1.2;stroke-linecap:butt;stroke-linejoin:miter;stroke:rgb(0%,0%,100%);stroke-opacity:1;stroke-miterlimit:10;" d="M 147.398438 160.074219 L 133.78125 155.214844 "/>
<path style="fill:none;stroke-width:1.2;stroke-linecap:butt;stroke-linejoin:miter;stroke:rgb(0%,0%,0%);stroke-opacity:1;stroke-miterlimit:10;" d="M 161.015625 164.933594 L 172.03125 155.570312 "/>
<path style="fill:none;stroke-width:1.2;stroke-linecap:butt;stroke-linejoin:miter;stroke:rgb(100%,0%,0%);stroke-opacity:1;stroke-miterlimit:10;" d="M 172.03125 155.570312 L 183.050781 146.207031 "/>
<path style="fill:none;stroke-width:1.2;stroke-linecap:butt;stroke-linejoin:miter;stroke:rgb(0%,0%,100%);stroke-opacity:1;stroke-miterlimit:10;" d="M 133.78125 155.214844 L 122.765625 164.578125 "/>
<path style="fill:none;stroke-width:1.2;stroke-linecap:butt;stroke-linejoin:miter;stroke:rgb(0%,0%,0%);stroke-opacity:1;stroke-miterlimit:10;" d="M 122.765625 164.578125 L 111.75 173.941406 "/>
<path style="fill:none;stroke-width:1.2;stroke-linecap:butt;stroke-linejoin:miter;stroke:rgb(0%,0%,100%);stroke-opacity:1;stroke-miterlimit:10;" d="M 135.984375 162.269531 L 127.171875 169.761719 "/>
<path style="fill:none;stroke-width:1.2;stroke-linecap:butt;stroke-linejoin:miter;stroke:rgb(0%,0%,0%);stroke-opacity:1;stroke-miterlimit:10;" d="M 127.171875 169.761719 L 118.359375 177.25 "/>
<path style=" stroke:none;fill-rule:nonzero;fill:rgb(100%,100%,100%);fill-opacity:1;" d="M 129.78125 148.214844 L 138.78125 148.214844 L 138.78125 162.214844 L 129.78125 162.214844 Z M 129.78125 148.214844 "/>
<g style="fill:rgb(0%,0%,100%);fill-opacity:1;">
  <use xlink:href="#glyph0-1" x="129.78125" y="159.353516"/>
</g>
<path style="fill:none;stroke-width:1.2;stroke-linecap:butt;stroke-linejoin:miter;stroke:rgb(0%,0%,0%);stroke-opacity:1;stroke-miterlimit:10;" d="M 111.75 173.941406 L 98.132812 169.082031 "/>
<path style="fill:none;stroke-width:1.2;stroke-linecap:butt;stroke-linejoin:miter;stroke:rgb(0%,0%,100%);stroke-opacity:1;stroke-miterlimit:10;" d="M 98.132812 169.082031 L 84.515625 164.222656 "/>
<path style="fill:none;stroke-width:1.2;stroke-linecap:butt;stroke-linejoin:miter;stroke:rgb(0%,0%,100%);stroke-opacity:1;stroke-miterlimit:10;" d="M 84.515625 164.222656 L 73.5 173.585938 "/>
<path style="fill:none;stroke-width:1.2;stroke-linecap:butt;stroke-linejoin:miter;stroke:rgb(0%,0%,0%);stroke-opacity:1;stroke-miterlimit:10;" d="M 73.5 173.585938 L 62.484375 182.949219 "/>
<path style="fill:none;stroke-width:1.2;stroke-linecap:butt;stroke-linejoin:miter;stroke:rgb(0%,0%,100%);stroke-opacity:1;stroke-miterlimit:10;" d="M 84.515625 164.222656 L 81.917969 150 "/>
<path style="fill:none;stroke-width:1.2;stroke-linecap:butt;stroke-linejoin:miter;stroke:rgb(0%,0%,0%);stroke-opacity:1;stroke-miterlimit:10;" d="M 81.917969 150 L 79.316406 135.777344 "/>
<path style=" stroke:none;fill-rule:nonzero;fill:rgb(100%,100%,100%);fill-opacity:1;" d="M 80.515625 157.222656 L 89.515625 157.222656 L 89.515625 171.222656 L 80.515625 171.222656 Z M 80.515625 157.222656 "/>
<g style="fill:rgb(0%,0%,100%);fill-opacity:1;">
  <use xlink:href="#glyph0-1" x="80.515625" y="168.361328"/>
</g>
<path style="fill:none;stroke-width:1.2;stroke-linecap:butt;stroke-linejoin:miter;stroke:rgb(0%,0%,0%);stroke-opacity:1;stroke-miterlimit:10;" d="M 63.625 179.742188 L 50.011719 174.882812 "/>
<path style="fill:none;stroke-width:1.2;stroke-linecap:butt;stroke-linejoin:miter;stroke:rgb(100%,0%,0%);stroke-opacity:1;stroke-miterlimit:10;" d="M 50.011719 174.882812 L 36.394531 170.027344 "/>
<path style="fill:none;stroke-width:1.2;stroke-linecap:butt;stroke-linejoin:miter;stroke:rgb(0%,0%,0%);stroke-opacity:1;stroke-miterlimit:10;" d="M 61.339844 186.152344 L 47.722656 181.292969 "/>
<path style="fill:none;stroke-width:1.2;stroke-linecap:butt;stroke-linejoin:miter;stroke:rgb(100%,0%,0%);stroke-opacity:1;stroke-miterlimit:10;" d="M 47.722656 181.292969 L 34.105469 176.433594 "/>
<path style=" stroke:none;fill-rule:nonzero;fill:rgb(100%,100%,100%);fill-opacity:1;" d="M 25.25 166.230469 L 35.25 166.230469 L 35.25 180.230469 L 25.25 180.230469 Z M 25.25 166.230469 "/>
<g style="fill:rgb(100%,0%,0%);fill-opacity:1;">
  <use xlink:href="#glyph0-2" x="25.25" y="177.369141"/>
</g>
<path style="fill:none;stroke-width:1.2;stroke-linecap:butt;stroke-linejoin:miter;stroke:rgb(0%,0%,0%);stroke-opacity:1;stroke-miterlimit:10;" d="M 79.316406 135.777344 L 101.347656 117.050781 "/>
<path style="fill:none;stroke-width:1.2;stroke-linecap:butt;stroke-linejoin:miter;stroke:rgb(0%,0%,0%);stroke-opacity:1;stroke-miterlimit:10;" d="M 101.347656 117.050781 L 98.75 102.832031 "/>
<path style="fill:none;stroke-width:1.2;stroke-linecap:butt;stroke-linejoin:miter;stroke:rgb(100%,0%,0%);stroke-opacity:1;stroke-miterlimit:10;" d="M 98.75 102.832031 L 96.148438 88.609375 "/>
<path style="fill:none;stroke-width:1.2;stroke-linecap:butt;stroke-linejoin:miter;stroke:rgb(100%,0%,0%);stroke-opacity:1;stroke-miterlimit:10;" d="M 96.148438 88.609375 L 107.164062 79.246094 "/>
<path style="fill:none;stroke-width:1.2;stroke-linecap:butt;stroke-linejoin:miter;stroke:rgb(0%,0%,0%);stroke-opacity:1;stroke-miterlimit:10;" d="M 107.164062 79.246094 L 118.179688 69.882812 "/>
<path style=" stroke:none;fill-rule:nonzero;fill:rgb(100%,100%,100%);fill-opacity:1;" d="M 91.148438 81.609375 L 101.148438 81.609375 L 101.148438 95.609375 L 91.148438 95.609375 Z M 91.148438 81.609375 "/>
<g style="fill:rgb(100%,0%,0%);fill-opacity:1;">
  <use xlink:href="#glyph0-2" x="91.148438" y="92.748047"/>
</g>
<path style="fill:none;stroke-width:1.2;stroke-linecap:butt;stroke-linejoin:miter;stroke:rgb(100%,0%,0%);stroke-opacity:1;stroke-miterlimit:10;" d="M 183.050781 146.207031 L 196.667969 151.066406 "/>
<path style="fill:none;stroke-width:1.2;stroke-linecap:butt;stroke-linejoin:miter;stroke:rgb(0%,0%,0%);stroke-opacity:1;stroke-miterlimit:10;" d="M 196.667969 151.066406 L 210.28125 155.925781 "/>
<path style=" stroke:none;fill-rule:nonzero;fill:rgb(100%,100%,100%);fill-opacity:1;" d="M 178.050781 139.207031 L 188.050781 139.207031 L 188.050781 153.207031 L 178.050781 153.207031 Z M 178.050781 139.207031 "/>
<g style="fill:rgb(100%,0%,0%);fill-opacity:1;">
  <use xlink:href="#glyph0-2" x="178.050781" y="150.345703"/>
</g>
<path style="fill:none;stroke-width:1.2;stroke-linecap:butt;stroke-linejoin:miter;stroke:rgb(0%,0%,0%);stroke-opacity:1;stroke-miterlimit:10;" d="M 210.28125 155.925781 L 215.484375 184.371094 "/>
<path style="fill:none;stroke-width:1.2;stroke-linecap:butt;stroke-linejoin:miter;stroke:rgb(0%,0%,0%);stroke-opacity:1;stroke-miterlimit:10;" d="M 217.496094 157.546875 L 221.65625 180.300781 "/>
<path style="fill:none;stroke-width:1.2;stroke-linecap:butt;stroke-linejoin:miter;stroke:rgb(0%,0%,0%);stroke-opacity:1;stroke-miterlimit:10;" d="M 232.316406 137.199219 L 210.28125 155.925781 "/>
<path style="fill:none;stroke-width:1.2;stroke-linecap:butt;stroke-linejoin:miter;stroke:rgb(0%,0%,0%);stroke-opacity:1;stroke-miterlimit:10;" d="M 215.484375 184.371094 L 242.71875 194.085938 "/>
<path style="fill:none;stroke-width:1.2;stroke-linecap:butt;stroke-linejoin:miter;stroke:rgb(0%,0%,0%);stroke-opacity:1;stroke-miterlimit:10;" d="M 242.71875 194.085938 L 264.75 175.363281 "/>
<path style="fill:none;stroke-width:1.2;stroke-linecap:butt;stroke-linejoin:miter;stroke:rgb(0%,0%,0%);stroke-opacity:1;stroke-miterlimit:10;" d="M 240.515625 187.03125 L 258.140625 172.050781 "/>
<path style="fill:none;stroke-width:1.2;stroke-linecap:butt;stroke-linejoin:miter;stroke:rgb(0%,0%,0%);stroke-opacity:1;stroke-miterlimit:10;" d="M 242.71875 194.085938 L 245.316406 208.308594 "/>
<path style="fill:none;stroke-width:1.2;stroke-linecap:butt;stroke-linejoin:miter;stroke:rgb(0%,80%,0%);stroke-opacity:1;stroke-miterlimit:10;" d="M 245.316406 208.308594 L 247.917969 222.53125 "/>
<path style="fill:none;stroke-width:1.2;stroke-linecap:butt;stroke-linejoin:miter;stroke:rgb(0%,0%,0%);stroke-opacity:1;stroke-miterlimit:10;" d="M 264.75 175.363281 L 259.550781 146.917969 "/>
<path style="fill:none;stroke-width:1.2;stroke-linecap:butt;stroke-linejoin:miter;stroke:rgb(0%,0%,0%);stroke-opacity:1;stroke-miterlimit:10;" d="M 259.550781 146.917969 L 232.316406 137.199219 "/>
<path style="fill:none;stroke-width:1.2;stroke-linecap:butt;stroke-linejoin:miter;stroke:rgb(0%,0%,0%);stroke-opacity:1;stroke-miterlimit:10;" d="M 254.539062 152.355469 L 232.753906 144.578125 "/>
<path style=" stroke:none;fill-rule:nonzero;fill:rgb(100%,100%,100%);fill-opacity:1;" d="M 241.917969 215.53125 L 253.917969 215.53125 L 253.917969 229.53125 L 241.917969 229.53125 Z M 241.917969 215.53125 "/>
<g style="fill:rgb(0%,80%,0%);fill-opacity:1;">
  <use xlink:href="#glyph0-3" x="241.917969" y="226.669922"/>
  <use xlink:href="#glyph0-4" x="250.296875" y="226.669922"/>
</g>
</g>
</svg>

<svg xmlns="http://www.w3.org/2000/svg" xmlns:xlink="http://www.w3.org/1999/xlink" width="300pt" height="300pt" viewBox="0 0 300 300"><defs><symbol overflow="visible"><path d="M.594 2.125V-8.47h6V2.126zm.672-.672h4.671V-7.78h-4.67zm0 0"/></symbol><symbol overflow="visible" id="a"><path d="M1.172-8.75h1.594l3.89 7.313V-8.75h1.14V0H6.204L2.328-7.313V0H1.172zm0 0"/></symbol><symbol overflow="visible" id="b"><path d="M4.734-7.953c-.867 0-1.554.324-2.062.97-.5.635-.75 1.51-.75 2.624 0 1.094.25 1.965.75 2.61.508.637 1.195.953 2.062.953.852 0 1.532-.316 2.032-.953.507-.645.765-1.516.765-2.61 0-1.113-.257-1.988-.764-2.624-.5-.645-1.18-.97-2.032-.97zm0-.953c1.22 0 2.192.414 2.922 1.234.74.824 1.11 1.93 1.11 3.313 0 1.376-.37 2.477-1.11 3.298C6.926-.24 5.953.17 4.734.17c-1.23 0-2.214-.41-2.953-1.234C1.04-1.882.673-2.984.673-4.36c0-1.382.367-2.488 1.11-3.312.738-.82 1.722-1.234 2.952-1.234zm0 0"/></symbol><symbol overflow="visible" id="c"><path d="M7.734-8.078v1.25c-.406-.375-.836-.65-1.28-.828-.45-.188-.93-.282-1.438-.282-1 0-1.766.31-2.297.922-.533.618-.798 1.5-.798 2.657 0 1.15.266 2.028.797 2.64.53.618 1.296.923 2.296.923.507 0 .988-.094 1.437-.28.445-.19.875-.462 1.28-.83V-.67c-.417.28-.858.496-1.327.64-.46.134-.945.204-1.453.204-1.336 0-2.383-.406-3.14-1.22-.762-.81-1.14-1.913-1.14-3.31 0-1.408.378-2.517 1.14-3.33.757-.812 1.804-1.218 3.14-1.218.52 0 1.008.074 1.47.22.468.135.905.338 1.31.608zm0 0"/></symbol><symbol overflow="visible" id="d"><path d="M1.125-9.125h1.078V0H1.125zm0 0"/></symbol></defs><g><path fill="#fff" d="M0 0h300v300H0z"/><path d="M45.652 230.117l22.032-18.726M67.684 211.39l13.617 4.86" stroke-width="1.2" stroke="#000" stroke-miterlimit="10" fill="none"/><path d="M81.3 216.25l13.618 4.86" stroke-width="1.2" stroke="#00f" stroke-miterlimit="10" fill="none"/><path d="M72.695 205.957l10.89 3.887" stroke-width="1.2" stroke="#000" stroke-miterlimit="10" fill="none"/><path d="M83.586 209.844l10.894 3.886" stroke-width="1.2" stroke="#00f" stroke-miterlimit="10" fill="none"/><path d="M62.484 182.95l5.2 28.44" stroke-width="1.2" stroke="#000" stroke-miterlimit="10" fill="none"/><path d="M94.918 221.11l11.016-9.364" stroke-width="1.2" stroke="#00f" stroke-miterlimit="10" fill="none"/><path d="M105.934 211.746l11.015-9.363" stroke-width="1.2" stroke="#000" stroke-miterlimit="10" fill="none"/><path d="M90.918 214.11h9v14h-9zm0 0" fill="#fff"/><use xlink:href="#a" x="90.918" y="225.248" fill="#00f"/><path d="M116.95 202.383l27.234 9.72M121.96 196.95l21.786 7.773M111.75 173.94l5.2 28.443M144.184 212.102l11.015-9.364" stroke-width="1.2" stroke="#000" stroke-miterlimit="10" fill="none"/><path d="M155.2 202.738l11.02-9.363M166.22 193.375l-2.603-14.22" stroke-width="1.2" stroke="#00f" stroke-miterlimit="10" fill="none"/><path d="M163.617 179.156l-2.6-14.222" stroke-width="1.2" stroke="#000" stroke-miterlimit="10" fill="none"/><path d="M159.004 191.758l-2.078-11.38" stroke-width="1.2" stroke="#00f" stroke-miterlimit="10" fill="none"/><path d="M156.926 180.38L154.844 169" stroke-width="1.2" stroke="#000" stroke-miterlimit="10" fill="none"/><path d="M162.22 186.375h9v14h-9zm0 0" fill="#fff"/><use xlink:href="#a" x="162.219" y="197.514" fill="#00f"/><path d="M161.016 164.934l-13.618-4.86" stroke-width="1.2" stroke="#000" stroke-miterlimit="10" fill="none"/><path d="M147.398 160.074l-13.617-4.86" stroke-width="1.2" stroke="#00f" stroke-miterlimit="10" fill="none"/><path d="M161.016 164.934l11.015-9.364" stroke-width="1.2" stroke="#000" stroke-miterlimit="10" fill="none"/><path d="M172.03 155.57l11.02-9.363" stroke-width="1.2" stroke="#f00" stroke-miterlimit="10" fill="none"/><path d="M133.78 155.215l-11.014 9.363" stroke-width="1.2" stroke="#00f" stroke-miterlimit="10" fill="none"/><path d="M122.766 164.578l-11.016 9.363" stroke-width="1.2" stroke="#000" stroke-miterlimit="10" fill="none"/><path d="M135.984 162.27l-8.812 7.492" stroke-width="1.2" stroke="#00f" stroke-miterlimit="10" fill="none"/><path d="M127.172 169.762l-8.813 7.488" stroke-width="1.2" stroke="#000" stroke-miterlimit="10" fill="none"/><path d="M129.78 148.215h9v14h-9zm0 0" fill="#fff"/><use xlink:href="#a" x="129.781" y="159.354" fill="#00f"/><path d="M111.75 173.94l-13.617-4.858" stroke-width="1.2" stroke="#000" stroke-miterlimit="10" fill="none"/><path d="M98.133 169.082l-13.617-4.86M84.516 164.223L73.5 173.586" stroke-width="1.2" stroke="#00f" stroke-miterlimit="10" fill="none"/><path d="M73.5 173.586l-11.016 9.363" stroke-width="1.2" stroke="#000" stroke-miterlimit="10" fill="none"/><path d="M84.516 164.223L81.918 150" stroke-width="1.2" stroke="#00f" stroke-miterlimit="10" fill="none"/><path d="M81.918 150l-2.602-14.223" stroke-width="1.2" stroke="#000" stroke-miterlimit="10" fill="none"/><path d="M80.516 157.223h9v14h-9zm0 0" fill="#fff"/><use xlink:href="#a" x="80.516" y="168.361" fill="#00f"/><path d="M63.625 179.742l-13.613-4.86" stroke-width="1.2" stroke="#000" stroke-miterlimit="10" fill="none"/><path d="M50.012 174.883l-13.617-4.856" stroke-width="1.2" stroke="#f00" stroke-miterlimit="10" fill="none"/><path d="M61.34 186.152l-13.617-4.86" stroke-width="1.2" stroke="#000" stroke-miterlimit="10" fill="none"/><path d="M47.723 181.293l-13.618-4.86" stroke-width="1.2" stroke="#f00" stroke-miterlimit="10" fill="none"/><path d="M25.25 166.23h10v14h-10zm0 0" fill="#fff"/><use xlink:href="#b" x="25.25" y="177.369" fill="#f00"/><path d="M79.316 135.777l22.032-18.726M101.348 117.05l-2.598-14.218" stroke-width="1.2" stroke="#000" stroke-miterlimit="10" fill="none"/><path d="M98.75 102.832L96.148 88.61M96.148 88.61l11.016-9.364" stroke-width="1.2" stroke="#f00" stroke-miterlimit="10" fill="none"/><path d="M107.164 79.246l11.016-9.363" stroke-width="1.2" stroke="#000" stroke-miterlimit="10" fill="none"/><path d="M91.148 81.61h10v14h-10zm0 0" fill="#fff"/><use xlink:href="#b" x="91.148" y="92.748" fill="#f00"/><path d="M183.05 146.207l13.618 4.86" stroke-width="1.2" stroke="#f00" stroke-miterlimit="10" fill="none"/><path d="M196.668 151.066l13.613 4.86" stroke-width="1.2" stroke="#000" stroke-miterlimit="10" fill="none"/><path d="M178.05 139.207h10v14h-10zm0 0" fill="#fff"/><use xlink:href="#b" x="178.051" y="150.346" fill="#f00"/><path d="M210.28 155.926l5.204 28.445M217.496 157.547l4.16 22.754M232.316 137.2l-22.035 18.726M215.484 184.37l27.235 9.716M242.72 194.086l22.03-18.723M240.516 187.03l17.625-14.98M242.72 194.086l2.596 14.223" stroke-width="1.2" stroke="#000" stroke-miterlimit="10" fill="none"/><path d="M245.316 208.31l2.602 14.22" stroke-width="1.2" stroke="#0c0" stroke-miterlimit="10" fill="none"/><path d="M264.75 175.363l-5.2-28.445M259.55 146.918l-27.234-9.72M254.54 152.355l-21.786-7.777" stroke-width="1.2" stroke="#000" stroke-miterlimit="10" fill="none"/><path d="M241.918 215.53h12v14h-12zm0 0" fill="#fff"/><g fill="#0c0"><use xlink:href="#c" x="241.918" y="226.67"/><use xlink:href="#d" x="250.297" y="226.67"/></g></g></svg>
